src/assets/img/providers/endorphina-g.svg

<svg width="70" height="32" viewBox="0 0 70 32" fill="none" xmlns="http://www.w3.org/2000/svg">
<path fill-rule="evenodd" clip-rule="evenodd" d="M0.100784 6.31535C0.231587 5.67473 0.628224 5.00274 1.40105 4.29867C4.31537 1.64278 9.36905 -0.942588 15.9384 0.338286C22.5078 1.61916 25.0889 6.20711 25.0889 6.20711C22.0643 3.48494 18.0302 2.37154 14.3635 2.13638C10.6968 1.90121 8.28738 2.79462 7.31218 4.21652C6.33698 5.63842 6.25448 7.10756 7.40632 9.09357C8.52457 11.0219 12.1342 13.459 12.3439 13.5997L12.3468 13.6011C12.3514 13.6039 12.3542 13.606 12.3542 13.606C12.3542 13.606 14.5285 14.7695 14.5285 15.9213C14.5285 15.9478 14.5274 15.9739 14.526 16C14.5274 16.0261 14.5285 16.0522 14.5285 16.0786C14.5285 17.2304 12.3542 18.3939 12.3542 18.3939C12.306 18.4261 8.5511 20.9334 7.40667 22.9066C6.25483 24.8927 6.33698 26.3618 7.31253 27.7837C8.28809 29.2056 10.6972 30.099 14.3635 29.8638C18.0302 29.6287 22.0643 28.5153 25.0889 25.7931C25.0889 25.7931 22.5078 30.3811 15.9384 31.6619C9.36905 32.9432 4.31572 30.3574 1.40105 27.7016C0.628224 26.9971 0.231587 26.3251 0.100784 25.6845C-0.252499 23.9522 1.34053 22.4495 2.70942 21.1583L2.7103 21.1574L2.8113 21.0621C4.66933 19.3081 5.49539 17.5654 5.48023 16.0007C5.49539 14.436 4.66933 12.6932 2.8113 10.9392L2.71026 10.8439C1.34085 9.55214 -0.252917 8.04841 0.100784 6.31535ZM52.7002 13.7342C52.9887 13.6165 53.4716 13.5577 54.1486 13.5577C54.4782 13.5577 54.761 13.6138 54.9965 13.7255C55.232 13.8373 55.4026 13.9656 55.5088 14.1098C55.6149 14.254 55.6956 14.419 55.7517 14.6045C55.8074 14.7899 55.8384 14.9285 55.8444 15.0194C55.85 15.1108 55.85 15.1887 55.8444 15.2536V18.4686C54.9612 18.5864 54.5195 18.3128 54.5195 17.6471V16.6755C54.5251 15.7983 54.4842 15.2638 54.3957 15.0723C54.3076 14.8809 54.0305 14.7793 53.5654 14.7677C53.2767 14.7677 52.9883 14.8206 52.6999 14.9267V17.6471C52.7115 18.0004 52.6012 18.2317 52.3688 18.3406C52.1361 18.4496 51.8051 18.4922 51.3753 18.4686V11.5791C51.4814 11.6556 51.621 11.7014 51.7948 11.7159C51.9683 11.7307 52.1157 11.7381 52.2366 11.7381C52.3572 11.7381 52.4647 11.8016 52.5588 11.9281C52.653 12.0547 52.7002 12.2624 52.7002 12.5508V13.7342ZM32.3064 11.6585L32.306 11.6582H32.3064V11.6585ZM32.3064 11.6585C32.3948 11.7232 32.505 11.7643 32.6371 11.782C32.7696 11.7996 32.8902 11.8084 32.9992 11.8084C33.1081 11.8084 33.2125 11.8246 33.3126 11.8571C33.4127 11.8895 33.4906 11.9674 33.5467 12.0912C33.6028 12.2149 33.6306 12.3944 33.6306 12.6299V17.8412C33.6246 17.8472 33.5968 17.881 33.5467 17.9427C33.4966 18.0044 33.4508 18.0545 33.4099 18.0929C33.3686 18.1313 33.2921 18.181 33.1804 18.2431C33.0686 18.3048 32.9449 18.3534 32.8095 18.3887C32.6741 18.424 32.4915 18.4564 32.2619 18.486C32.0324 18.5153 31.7729 18.5301 31.4845 18.5301C30.5777 18.5301 29.9269 18.3344 29.5324 17.9427C29.1379 17.5514 28.9408 16.8991 28.9408 15.9863C28.9408 15.633 28.9877 15.3164 29.0821 15.0368C29.1763 14.7573 29.3014 14.5288 29.4576 14.3522C29.6135 14.1755 29.7975 14.0285 30.0097 13.9104C30.2216 13.7926 30.4367 13.7101 30.6546 13.6632C30.8725 13.6164 31.0992 13.5927 31.3347 13.5927C31.7881 13.5927 32.1121 13.6632 32.3064 13.8046V11.6585ZM32.306 14.8207V16.0748C32.3117 16.8519 32.3117 17.2404 32.3057 17.2407H32.2968C32.25 17.2524 32.1985 17.2644 32.1424 17.276C32.0864 17.288 31.988 17.3014 31.8466 17.3158C31.7052 17.3306 31.5741 17.3335 31.4535 17.3247C31.3329 17.3158 31.1975 17.2897 31.0474 17.2453C30.8972 17.2009 30.7706 17.135 30.6676 17.0465C30.5647 16.9583 30.4776 16.8318 30.4071 16.6668C30.3362 16.5021 30.301 16.3079 30.301 16.084C30.301 15.8485 30.3302 15.644 30.3891 15.4702C30.4476 15.2967 30.5245 15.1613 30.6186 15.064C30.7128 14.9667 30.8249 14.8888 30.9543 14.8299C31.0837 14.771 31.2092 14.7358 31.3298 14.7238C31.4503 14.7118 31.5787 14.7104 31.7141 14.7192C31.8498 14.728 31.963 14.7414 32.0543 14.759C32.1456 14.7767 32.2295 14.7971 32.306 14.8207ZM27.6867 15.2533V18.4683C27.4804 18.48 27.3038 18.4786 27.1568 18.4637C27.0094 18.4489 26.8698 18.4151 26.7372 18.3622C26.6047 18.3093 26.5077 18.2222 26.4457 18.1017C26.384 17.9811 26.3558 17.8295 26.3617 17.6469V15.7391V15.7215V15.2797C26.2736 14.8499 25.8727 14.6789 25.1606 14.7674C24.7897 14.8147 24.5746 14.8499 24.5157 14.8736C24.5333 14.9737 24.5422 15.0914 24.5422 15.2268V17.6469C24.5478 17.8295 24.5185 17.9811 24.454 18.1017C24.3891 18.2222 24.2918 18.3093 24.1624 18.3622C24.0327 18.4151 23.8945 18.4493 23.7475 18.4637C23.6001 18.4786 23.4235 18.48 23.2176 18.4683V14.167C23.2176 13.7845 23.8328 13.5782 25.0636 13.5486C26.8063 13.5014 27.6807 14.0697 27.6867 15.2533ZM18.8277 16.7726C18.8277 16.9553 18.9191 17.092 19.1017 17.1834C19.284 17.2747 19.5152 17.3219 19.7952 17.3247C20.0748 17.3279 20.3487 17.3159 20.6167 17.2895C20.8846 17.263 21.1378 17.232 21.3761 17.1968C21.6144 17.1615 21.7516 17.1439 21.7868 17.1439C21.8105 17.6562 21.7089 18.0182 21.4822 18.2301C21.2555 18.442 20.8007 18.5481 20.1174 18.5481C19.1754 18.5481 18.4833 18.3567 18.0419 17.9742C17.6001 17.5916 17.3794 16.9292 17.3794 15.9868C17.3794 15.5157 17.4397 15.1166 17.5603 14.7898C17.6808 14.463 17.8575 14.2144 18.0902 14.0434C18.3229 13.8728 18.5816 13.7518 18.8676 13.6813C19.1532 13.6108 19.4874 13.5752 19.8699 13.5752C20.6001 13.5752 21.1374 13.7296 21.4819 14.0388C21.8263 14.348 21.9987 14.8413 21.9987 15.5182C21.9987 15.7773 21.9487 15.985 21.8485 16.1408C21.7484 16.297 21.6172 16.4014 21.4554 16.4543C21.2932 16.5071 21.099 16.5456 20.8726 16.5692C20.6459 16.5928 20.422 16.6002 20.2013 16.5914C19.9806 16.5826 19.7419 16.5928 19.486 16.6224C19.2297 16.652 19.01 16.7018 18.8277 16.7726ZM18.7837 15.845C18.8838 15.7745 19.047 15.7273 19.2737 15.7036C19.5004 15.68 19.7123 15.667 19.9098 15.6638C20.1068 15.661 20.2821 15.6197 20.4354 15.54C20.5885 15.4607 20.6621 15.3356 20.6561 15.1646C20.6561 15.0116 20.5356 14.885 20.2941 14.7849C19.9584 14.6435 19.6316 14.6318 19.3136 14.7496C18.8718 14.909 18.6952 15.2739 18.7837 15.845ZM34.885 16.022C34.8791 15.9868 34.8748 15.9395 34.8716 15.8807C34.8685 15.8218 34.8776 15.7072 34.8981 15.5362C34.9185 15.3656 34.9524 15.202 34.9996 15.0461C35.0465 14.8903 35.129 14.7179 35.2468 14.5293C35.3645 14.341 35.5101 14.1792 35.684 14.0434C35.8574 13.908 36.0915 13.7949 36.3863 13.7032C36.6807 13.6119 37.0163 13.5664 37.3932 13.5664C37.6583 13.5664 37.9023 13.5872 38.1262 13.6281C38.3501 13.6694 38.5426 13.7254 38.7048 13.7959C38.8666 13.8664 39.0108 13.9549 39.1377 14.0611C39.2643 14.1672 39.3686 14.2715 39.4511 14.3745C39.5336 14.4774 39.6027 14.5998 39.6588 14.7412C39.7145 14.8825 39.7572 15.0049 39.7868 15.1078C39.816 15.2108 39.8368 15.3317 39.8485 15.4699C39.8601 15.6085 39.8675 15.7128 39.8707 15.7833C39.8735 15.8539 39.8735 15.9438 39.8707 16.0527C39.8675 16.1616 39.8661 16.2219 39.8661 16.2339C39.8661 16.3281 39.8629 16.4137 39.8573 16.4902C39.8513 16.5667 39.8337 16.6877 39.8044 16.8523C39.7748 17.0173 39.7339 17.1643 39.6807 17.2941C39.6278 17.4238 39.5439 17.5649 39.4289 17.7179C39.314 17.8712 39.1786 17.9992 39.0228 18.1022C38.8666 18.2051 38.6635 18.2922 38.4132 18.3627C38.1629 18.4332 37.8815 18.4688 37.5698 18.4688C37.2458 18.4688 36.9574 18.4484 36.7043 18.4071C36.4511 18.3659 36.2361 18.3116 36.0594 18.2439C35.8828 18.1762 35.7284 18.0835 35.5958 17.9657C35.4633 17.848 35.3557 17.7274 35.2736 17.6036C35.1911 17.4799 35.1234 17.3269 35.0705 17.1443C35.0176 16.962 34.9778 16.7864 34.9513 16.6186C34.9249 16.4508 34.9027 16.2519 34.885 16.022ZM36.2008 16.1017C36.2184 16.308 36.2435 16.4712 36.2759 16.5918C36.3084 16.7124 36.3672 16.8319 36.4526 16.9496C36.5379 17.0674 36.6659 17.1527 36.8369 17.2059C37.0075 17.2588 37.2254 17.2853 37.4905 17.2853C37.6964 17.2853 37.873 17.2528 38.0204 17.188C38.1674 17.1231 38.2764 17.0498 38.3472 16.9673C38.4178 16.8848 38.4738 16.785 38.5151 16.6669C38.5563 16.5491 38.5799 16.461 38.5856 16.4017C38.5912 16.3429 38.5944 16.278 38.5944 16.2075V16.1148V15.9734C38.5944 15.9353 38.5912 15.8778 38.5856 15.801C38.5796 15.7245 38.5694 15.6582 38.5546 15.6021C38.5397 15.5461 38.5193 15.4801 38.4929 15.4033C38.4664 15.3268 38.434 15.2605 38.3959 15.2044C38.3575 15.1484 38.3074 15.0913 38.2457 15.032C38.184 14.9731 38.1146 14.9245 38.038 14.8864C37.9615 14.8483 37.8688 14.8173 37.7599 14.7937C37.6509 14.7701 37.5318 14.7584 37.402 14.7584C37.1665 14.7584 36.9662 14.7909 36.8012 14.8557C36.6362 14.9206 36.5157 14.9957 36.4392 15.081C36.3626 15.1664 36.3038 15.2785 36.2625 15.4167C36.2213 15.5552 36.1991 15.6628 36.1962 15.7389C36.1931 15.8154 36.1948 15.9127 36.2008 16.0305V16.1017ZM44.3669 13.7519C44.3578 13.6401 44.3564 13.5784 44.3624 13.5664H44.1022H44.0006H43.6914H42.8171C42.5875 13.5664 42.3799 13.5957 42.1944 13.6545C42.009 13.7134 41.8574 13.7868 41.7396 13.8753C41.6215 13.9637 41.5217 14.0667 41.4392 14.1845C41.3567 14.3026 41.295 14.4157 41.2538 14.5247C41.2125 14.6336 41.1833 14.7426 41.1656 14.8515C41.148 14.9608 41.1374 15.0461 41.1346 15.1078C41.1314 15.1695 41.13 15.2182 41.13 15.2534V17.6206C41.13 17.8385 41.1773 18.0045 41.2714 18.1195C41.3656 18.2344 41.4727 18.3035 41.5937 18.3271C41.7146 18.3507 41.8616 18.3846 42.0354 18.4287C42.2089 18.4731 42.3489 18.5334 42.455 18.6099V15.7833C42.455 15.5598 42.4726 15.3832 42.5079 15.2534C42.5431 15.124 42.6136 15.0236 42.7198 14.9531C42.8255 14.8822 42.9465 14.8381 43.0818 14.8205C43.2172 14.8029 43.4087 14.794 43.6558 14.794C43.8265 14.794 43.9664 14.7584 44.0754 14.6879C44.1843 14.6171 44.2566 14.5229 44.2918 14.4052C44.3271 14.2878 44.3504 14.1771 44.3624 14.0741C44.3744 13.9712 44.3758 13.8636 44.3669 13.7519ZM46.7648 20.4204C46.6586 20.3438 46.5187 20.298 46.3452 20.2836C46.1714 20.2687 46.0244 20.2613 45.9034 20.2613C45.7825 20.2613 45.6753 20.1979 45.5812 20.0713C45.4871 19.9447 45.4398 19.7371 45.4398 19.4487V14.2377C45.4455 14.2321 45.4737 14.1979 45.5237 14.1362C45.5738 14.0745 45.6193 14.0259 45.6605 13.9906C45.7018 13.9553 45.7783 13.9053 45.89 13.8404C46.0018 13.7755 46.1256 13.7255 46.2609 13.6902C46.3963 13.655 46.579 13.6225 46.8085 13.5929C47.038 13.5636 47.2971 13.5488 47.5859 13.5488C48.4927 13.5488 49.1432 13.7445 49.5381 14.1362C49.9326 14.5279 50.13 15.1798 50.13 16.0926C50.13 16.5344 50.0595 16.9169 49.9181 17.2409C49.7767 17.5649 49.5871 17.8138 49.3484 17.9873C49.11 18.1611 48.8565 18.2877 48.5889 18.367C48.321 18.4463 48.0368 18.4862 47.7368 18.4862C47.3306 18.4862 47.0066 18.4449 46.7651 18.3624V20.4204H46.7648ZM46.7648 16.0041V17.2582C46.8589 17.2878 46.9604 17.3111 47.0694 17.3287C47.1783 17.3463 47.3151 17.3611 47.4801 17.3728C47.6448 17.3848 47.7981 17.3671 47.9395 17.3199C48.0809 17.273 48.2163 17.2049 48.3457 17.1168C48.4751 17.0287 48.5784 16.8873 48.6549 16.693C48.7314 16.4988 48.7698 16.2661 48.7698 15.9953C48.7698 15.7714 48.7331 15.5771 48.6595 15.4125C48.5858 15.2478 48.5005 15.1209 48.4031 15.0328C48.3058 14.9446 48.1779 14.8784 48.0188 14.8339C47.8598 14.7899 47.7273 14.7634 47.6215 14.7546C47.5154 14.7458 47.3832 14.75 47.2242 14.768C47.0652 14.7856 46.9678 14.7976 46.9326 14.8033C46.8973 14.8093 46.8444 14.8209 46.7736 14.8385H46.7648C46.7588 14.8382 46.7588 15.227 46.7648 16.0041ZM57.3192 13.0635C57.1838 12.9221 57.1161 12.7543 57.1161 12.5601C57.1161 12.3658 57.1852 12.1994 57.3238 12.0612C57.462 11.923 57.6284 11.8535 57.8227 11.8535C58.0169 11.8535 58.1833 11.923 58.3219 12.0612C58.4601 12.1997 58.5296 12.3658 58.5296 12.5601C58.5296 12.7543 58.4605 12.9207 58.3219 13.0589C58.1833 13.1975 58.0173 13.2666 57.8227 13.2666C57.6284 13.2666 57.4606 13.1989 57.3192 13.0635ZM58.4763 14.4502C58.4763 14.1618 58.4291 13.9541 58.3349 13.8275C58.2408 13.701 58.1333 13.6375 58.0127 13.6375C57.8921 13.6375 57.7447 13.6301 57.5709 13.6153C57.3971 13.6008 57.2575 13.555 57.1514 13.4785V18.4687C57.5812 18.4923 57.9122 18.4497 58.1449 18.3407C58.3776 18.2318 58.488 18.0005 58.476 17.6472V14.4502H58.4763ZM64.2528 18.4683V15.2533C64.2468 14.0697 63.3724 13.5014 61.6297 13.5486C60.3989 13.5782 59.7836 13.7845 59.7836 14.167V18.4683C59.9895 18.48 60.1662 18.4786 60.3135 18.4637C60.4606 18.4493 60.5988 18.4151 60.7285 18.3622C60.8579 18.3093 60.9552 18.2222 61.0201 18.1017C61.0846 17.9811 61.1139 17.8295 61.1082 17.6469V15.2268C61.1082 15.0914 61.0994 14.9737 61.0818 14.8736C61.1407 14.8499 61.3557 14.8147 61.7266 14.7674C62.4388 14.6789 62.8397 14.8499 62.9278 15.2797V15.7215V15.7391V17.6469C62.9218 17.8295 62.95 17.9811 63.0117 18.1017C63.0738 18.2222 63.1707 18.3093 63.3033 18.3622C63.4359 18.4151 63.5755 18.4489 63.7229 18.4637C63.8699 18.4786 64.0465 18.48 64.2528 18.4683ZM65.8601 14.8032C65.8601 14.7856 65.8569 14.7619 65.8513 14.7327C65.8453 14.7034 65.8439 14.6459 65.8467 14.5603C65.8495 14.4749 65.8583 14.3939 65.8732 14.3173C65.888 14.2408 65.9172 14.1541 65.9616 14.0568C66.0057 13.9595 66.0646 13.8773 66.1383 13.8096C66.212 13.742 66.3117 13.6845 66.4387 13.6372C66.5652 13.5904 66.714 13.5667 66.8847 13.5667H67.1318C67.2848 13.5611 67.4424 13.5611 67.6043 13.5667C67.7661 13.5727 67.9279 13.5801 68.0901 13.5889C68.2519 13.5978 68.4095 13.6228 68.5625 13.664C68.7155 13.7053 68.8612 13.7554 68.9997 13.8142C69.1379 13.8731 69.2648 13.957 69.3794 14.066C69.4944 14.1749 69.5945 14.3001 69.6798 14.4414C69.7651 14.5828 69.8314 14.7566 69.8787 14.9625C69.9256 15.1688 69.9492 15.4011 69.9492 15.6603V15.722V15.7837V15.8542V15.9159V15.9864V16.0569V16.1362V16.2244V16.3129V16.419V16.5604V16.6309C69.9492 16.8724 69.9227 17.0917 69.8699 17.2888C69.817 17.4862 69.7507 17.6466 69.671 17.77C69.5917 17.8938 69.493 18.0027 69.3752 18.0969C69.2574 18.191 69.1471 18.2601 69.0441 18.3045C68.9412 18.3486 68.8217 18.3838 68.6863 18.4106C68.5509 18.4371 68.4462 18.4533 68.3728 18.4593C68.2992 18.4653 68.2124 18.4681 68.1123 18.4681H66.8935C66.8759 18.4681 66.8494 18.4667 66.8142 18.4635C66.7789 18.4607 66.7126 18.4519 66.6153 18.4371C66.518 18.4223 66.4253 18.4004 66.3371 18.3708C66.249 18.3415 66.1503 18.2929 66.0413 18.2252C65.9324 18.1575 65.8397 18.0782 65.7632 17.9869C65.6866 17.8955 65.6218 17.7764 65.5689 17.629C65.516 17.482 65.4896 17.317 65.4896 17.1344C65.4896 16.8107 65.5308 16.5382 65.6133 16.3175C65.6958 16.0967 65.821 15.9258 65.9888 15.8052C66.1566 15.6846 66.3435 15.6007 66.5497 15.5534C66.7556 15.5066 67.006 15.4829 67.3003 15.4829C67.8126 15.4829 68.1617 15.4491 68.3471 15.3814C68.5326 15.3137 68.6253 15.209 68.6253 15.068C68.6253 14.8677 68.4324 14.7323 68.0467 14.6618C67.661 14.5913 67.2517 14.5765 66.8191 14.6177C66.3858 14.659 66.0664 14.7207 65.8601 14.8032ZM68.6602 16.1369C68.6366 16.1666 68.6027 16.2018 68.5587 16.2431C68.5146 16.2843 68.4159 16.339 68.2628 16.4063C68.1098 16.474 67.9508 16.5078 67.7858 16.5078C67.4974 16.5078 67.2633 16.5431 67.0835 16.614C66.9037 16.6845 66.8142 16.785 66.8142 16.9144C66.8142 17.0674 66.879 17.1823 67.0084 17.2588C67.1378 17.3353 67.3969 17.3737 67.7858 17.3737C67.9448 17.3737 68.0668 17.3723 68.1525 17.3692C68.2378 17.3663 68.3171 17.3441 68.3908 17.3029C68.4645 17.2616 68.516 17.2236 68.5453 17.1879C68.5745 17.1527 68.5995 17.0776 68.6203 16.9627C68.6408 16.8477 68.6528 16.7374 68.6556 16.6316C68.6584 16.5255 68.6602 16.3608 68.6602 16.1369Z" fill="#00AB55"/>
</svg>

<svg xmlns="http://www.w3.org/2000/svg" width="70" height="32" fill="none"><path fill="#00AB55" fill-rule="evenodd" d="M.1 6.315c.132-.64.528-1.312 1.301-2.016C4.315 1.643 9.37-.943 15.938.339c6.57 1.28 9.15 5.868 9.15 5.868-3.024-2.722-7.058-3.835-10.725-4.07-3.666-.236-6.076.658-7.05 2.08-.976 1.421-1.059 2.89.093 4.877 1.119 1.928 4.728 4.365 4.938 4.506l.003.001a.102.102 0 0 1 .007.005s2.175 1.164 2.175 2.315c0 .027-.002.053-.003.079l.002.079c0 1.151-2.174 2.315-2.174 2.315-.048.032-3.803 2.54-4.947 4.513-1.152 1.986-1.07 3.455-.094 4.877.975 1.422 3.384 2.315 7.05 2.08 3.667-.235 7.701-1.349 10.726-4.07 0 0-2.581 4.587-9.15 5.868-6.57 1.281-11.623-1.305-14.538-3.96-.773-.705-1.17-1.377-1.3-2.018-.353-1.732 1.24-3.235 2.608-4.526h.001l.101-.096c1.858-1.754 2.684-3.497 2.67-5.061.014-1.565-.812-3.308-2.67-5.062l-.1-.095C1.34 9.552-.254 8.048.1 6.315Zm52.6 7.42c.289-.118.772-.177 1.449-.177.33 0 .612.056.847.168.236.111.407.24.513.384.106.144.187.309.243.495.055.185.086.323.092.414.006.092.006.17 0 .235v3.215c-.883.117-1.325-.156-1.325-.822v-.971c.006-.878-.035-1.412-.123-1.604-.088-.191-.365-.293-.83-.304-.29 0-.578.053-.866.159v2.72c.011.353-.099.585-.331.694-.233.109-.564.151-.994.128v-6.89a.822.822 0 0 0 .42.137c.173.015.32.022.442.022.12 0 .228.064.322.19.094.127.141.334.141.623v1.183Zm-20.394-2.076Zm0 0a.71.71 0 0 0 .331.123c.133.018.253.026.362.026.11 0 .213.017.314.05.1.031.178.11.234.233.056.124.084.303.084.539v5.211a3.23 3.23 0 0 0-.084.102c-.05.061-.096.111-.137.15a1.292 1.292 0 0 1-.23.15 1.6 1.6 0 0 1-.37.146 4.6 4.6 0 0 1-.548.097c-.23.03-.49.044-.777.044-.907 0-1.558-.196-1.953-.587-.394-.392-.591-1.044-.591-1.957 0-.353.047-.67.141-.95.094-.279.22-.507.376-.684.155-.177.34-.324.552-.442.212-.117.427-.2.645-.247a3.23 3.23 0 0 1 .68-.07c.453 0 .777.07.971.212v-2.146Zm0 3.162v1.254c.006.777.006 1.165 0 1.166h-.01a3.846 3.846 0 0 1-.154.035 3.148 3.148 0 0 1-.689.049 1.953 1.953 0 0 1-.406-.08 1.015 1.015 0 0 1-.38-.198 1.015 1.015 0 0 1-.26-.38 1.466 1.466 0 0 1-.106-.583c0-.236.03-.44.088-.614.059-.173.136-.309.23-.406a1.194 1.194 0 0 1 .711-.34 2.791 2.791 0 0 1 .724.035c.092.018.175.038.252.062Zm-4.62.432v3.215c-.206.012-.382.01-.53-.004a1.54 1.54 0 0 1-.419-.102.541.541 0 0 1-.291-.26.926.926 0 0 1-.084-.455V15.28c-.088-.43-.49-.601-1.201-.513-.371.048-.586.083-.645.107.017.1.026.217.026.353v2.42a.897.897 0 0 1-.088.455.563.563 0 0 1-.292.26c-.13.053-.267.087-.415.102a3.435 3.435 0 0 1-.53.004v-4.301c0-.383.616-.589 1.847-.618 1.742-.048 2.617.52 2.623 1.704Zm-8.858 1.52c0 .182.091.319.274.41.182.092.413.139.693.142a7.5 7.5 0 0 0 .822-.035c.268-.027.52-.058.76-.093a5.43 5.43 0 0 1 .41-.053c.024.512-.078.874-.305 1.086-.226.212-.681.318-1.365.318-.942 0-1.634-.191-2.075-.574-.442-.382-.663-1.045-.663-1.987 0-.471.06-.87.181-1.197.12-.327.298-.576.53-.747.233-.17.492-.291.778-.362.285-.07.62-.106 1.002-.106.73 0 1.267.155 1.612.464.344.309.517.802.517 1.48 0 .258-.05.466-.15.622a.729.729 0 0 1-.394.313 2.857 2.857 0 0 1-.582.115c-.227.024-.451.031-.672.022-.22-.008-.46.002-.715.031-.256.03-.476.08-.658.15Zm-.044-.928c.1-.07.263-.118.49-.141.226-.024.438-.037.636-.04a1.16 1.16 0 0 0 .525-.124.379.379 0 0 0 .221-.375c0-.153-.12-.28-.362-.38a1.29 1.29 0 0 0-.98-.035c-.442.159-.619.524-.53 1.095Zm16.101.177a1.346 1.346 0 0 1-.013-.141 2.506 2.506 0 0 1 .026-.345 2.192 2.192 0 0 1 .349-1.007c.117-.188.263-.35.437-.486.173-.135.408-.248.702-.34.295-.091.63-.137 1.007-.137.265 0 .51.021.733.062.224.041.417.097.579.168.162.07.306.159.433.265.126.106.23.21.313.313.083.103.152.226.208.367.056.142.098.264.128.367.029.103.05.224.062.362a4.272 4.272 0 0 1 .022.583l-.005.18c0 .095-.003.18-.009.257a4.179 4.179 0 0 1-.053.362 2.18 2.18 0 0 1-.123.442c-.053.13-.137.27-.252.424-.115.153-.25.281-.406.384-.156.103-.36.19-.61.26-.25.071-.531.107-.843.107-.324 0-.613-.02-.866-.062a3.307 3.307 0 0 1-.645-.163 1.497 1.497 0 0 1-.463-.278 1.882 1.882 0 0 1-.322-.362 1.655 1.655 0 0 1-.203-.46 4.298 4.298 0 0 1-.12-.525 7.704 7.704 0 0 1-.066-.597Zm1.316.08c.017.206.042.37.075.49.032.12.091.24.177.358a.719.719 0 0 0 .384.256c.17.053.388.08.653.08.206 0 .383-.033.53-.098a.907.907 0 0 0 .327-.22.926.926 0 0 0 .168-.301c.041-.118.065-.206.07-.265.006-.06.01-.124.01-.195V15.973c0-.038-.004-.095-.01-.172a1.138 1.138 0 0 0-.03-.199 2.978 2.978 0 0 0-.062-.199.845.845 0 0 0-.247-.371.843.843 0 0 0-.208-.146 1.193 1.193 0 0 0-.278-.092 1.691 1.691 0 0 0-.358-.036c-.236 0-.436.033-.6.098a.946.946 0 0 0-.363.225.867.867 0 0 0-.176.336 1.416 1.416 0 0 0-.067.322 3.32 3.32 0 0 0 .005.291v.072Zm8.166-2.35a.76.76 0 0 1-.005-.186h-1.545c-.23 0-.437.03-.623.088a1.52 1.52 0 0 0-.454.221 1.355 1.355 0 0 0-.3.31 1.57 1.57 0 0 0-.274.666 2.426 2.426 0 0 0-.036.402v2.368c0 .218.047.384.141.498a.553.553 0 0 0 .323.208c.12.024.268.058.441.102.174.044.314.104.42.18v-2.826c0-.223.018-.4.053-.53a.507.507 0 0 1 .212-.3.834.834 0 0 1 .362-.133c.135-.017.327-.026.574-.026a.76.76 0 0 0 .42-.106.502.502 0 0 0 .216-.283 1.65 1.65 0 0 0 .075-.653Zm2.398 6.668a.822.822 0 0 0-.42-.136 5.297 5.297 0 0 0-.442-.023c-.12 0-.228-.063-.322-.19-.094-.126-.141-.334-.141-.622v-5.211a3.02 3.02 0 0 0 .084-.102c.05-.061.095-.11.136-.145a1.745 1.745 0 0 1 .6-.3c.136-.036.319-.069.549-.098.229-.03.488-.044.777-.044.907 0 1.557.196 1.952.587.395.392.592 1.044.592 1.957 0 .441-.07.824-.212 1.148-.141.324-.33.573-.57.746a2.48 2.48 0 0 1-.76.38c-.267.08-.551.12-.851.12-.406 0-.73-.042-.972-.125v2.058Zm0-4.416v1.254c.094.03.195.053.304.07.11.018.246.033.411.045a1.17 1.17 0 0 0 .46-.053c.14-.047.276-.115.406-.203a.886.886 0 0 0 .309-.424c.076-.194.115-.427.115-.698 0-.224-.037-.418-.11-.582a1.124 1.124 0 0 0-.257-.38.938.938 0 0 0-.384-.2 2.247 2.247 0 0 0-.398-.078 2.09 2.09 0 0 0-.397.013 8.44 8.44 0 0 0-.291.035 2.35 2.35 0 0 0-.16.035h-.008c-.006 0-.006.389 0 1.166Zm10.554-2.94a.703.703 0 0 1-.203-.504c0-.194.07-.36.208-.499a.68.68 0 0 1 .499-.207c.194 0 .36.069.499.207a.681.681 0 0 1 .208.5c0 .193-.07.36-.208.498a.68.68 0 0 1-.5.208.703.703 0 0 1-.503-.204Zm1.157 1.386c0-.288-.047-.496-.141-.622-.094-.127-.202-.19-.322-.19s-.268-.008-.442-.023a.822.822 0 0 1-.42-.136v4.99c.43.023.761-.02.994-.128.233-.11.343-.34.331-.694V14.45Zm5.777 4.018v-3.215c-.006-1.183-.88-1.752-2.623-1.704-1.231.03-1.846.236-1.846.618v4.301c.206.012.382.01.53-.004.147-.015.285-.049.414-.102a.563.563 0 0 0 .292-.26.896.896 0 0 0 .088-.455v-2.42c0-.136-.009-.253-.026-.353.059-.024.274-.06.645-.107.712-.088 1.113.083 1.2.513v2.367a.925.925 0 0 0 .085.455c.062.12.159.207.291.26.133.053.273.087.42.102.147.015.323.016.53.004Zm1.607-3.665a.402.402 0 0 0-.009-.07 1.536 1.536 0 0 1 .022-.415c.015-.077.044-.164.089-.261a.753.753 0 0 1 .176-.247.909.909 0 0 1 .3-.173c.127-.047.276-.07.447-.07h.247c.153-.006.31-.006.472 0 .162.006.324.013.486.022.162.009.32.034.472.075.154.041.3.091.438.15.138.06.265.143.38.252.114.109.215.234.3.375.085.142.151.316.199.521.047.207.07.44.07.698v.97c0 .242-.026.462-.08.659-.052.197-.118.358-.198.481-.08.124-.178.233-.296.327a1.485 1.485 0 0 1-.33.207c-.104.045-.223.08-.359.107-.135.026-.24.042-.313.048-.074.006-.16.01-.26.01h-1.22a.94.94 0 0 1-.079-.006 3.391 3.391 0 0 1-.199-.026 1.654 1.654 0 0 1-.278-.066 1.432 1.432 0 0 1-.296-.146 1.153 1.153 0 0 1-.278-.238 1.166 1.166 0 0 1-.194-.358 1.454 1.454 0 0 1-.08-.495c0-.323.042-.596.124-.817.083-.22.208-.391.376-.512.168-.12.355-.204.56-.252a3.44 3.44 0 0 1 .751-.07c.513 0 .862-.034 1.047-.102.186-.067.278-.172.278-.313 0-.2-.193-.336-.578-.406a4.457 4.457 0 0 0-1.228-.044c-.433.041-.753.103-.959.185Zm2.8 1.334c-.023.03-.057.065-.101.106a1.21 1.21 0 0 1-.296.163 1.167 1.167 0 0 1-.477.102c-.289 0-.523.035-.703.106-.18.07-.269.171-.269.3 0 .153.065.268.194.345.13.076.389.115.778.115.159 0 .28-.002.367-.005a.517.517 0 0 0 .238-.066.553.553 0 0 0 .154-.115.543.543 0 0 0 .075-.225c.02-.115.033-.226.036-.331.002-.107.004-.271.004-.495Z" clip-rule="evenodd"/></svg>
